cached_logos/jd-com-inc.svg

<svg xmlns="http://www.w3.org/2000/svg" role="img" viewBox="-5.87 -5.87 305.24 184.74"><title>JD.com, Inc. logo</title><style>svg {isolation:isolate}</style><defs><clipPath id="_clipPath_llmlVcLbyWwYXr6Zo8gnckNhMOgAZEV6"><path d="M0 0H293.7V173.242H0z"/></clipPath></defs><g clip-path="url(#_clipPath_llmlVcLbyWwYXr6Zo8gnckNhMOgAZEV6)"><g><g><path d="M 0 173.242 L 0 165.542 L 3.1 165.542 Q 11.7 165.542 11.7 156.542 L 11.7 123.442 L 20.9 123.442 L 20.9 156.442 Q 20.9 164.542 16 169.042 Q 11.2 173.242 2.9 173.242 L 0 173.242 Z"/><path fill-rule="evenodd" d="M 30.1 172.442 L 30.1 123.442 L 51.2 123.442 Q 63.7 123.442 70.7 130.442 Q 77.4 137.042 77.4 147.942 Q 77.4 158.742 70.7 165.342 Q 63.6 172.442 51.2 172.442 L 30.1 172.442 Z M 39.3 164.542 L 51.2 164.542 Q 59.2 164.542 63.6 160.042 Q 67.9 155.642 67.9 147.942 Q 67.9 140.142 63.6 135.742 Q 59.2 131.242 51.2 131.242 L 39.3 131.242 L 39.3 164.542 Z"/><path d="M135.9 160.442L141.5 166.142Q134.1 173.242 123.6 173.242 111.7 173.242 104.3 166.242 97 159.142 97 147.942 97 136.742 104.2 129.742 111.6 122.542 123.3 122.542 134.1 122.542 141.4 129.742L135.9 135.342Q130.9 130.342 123.5 130.342 115.7 130.342 110.9 135.342 106 140.242 106 147.942 106 155.642 111 160.542 116 165.542 123.8 165.542 130.9 165.542 135.9 160.442L135.9 160.442zM146.3 172.442L146.3 119.942 154.9 119.942 154.9 172.442 146.3 172.442z"/><path fill-rule="evenodd" d="M 182.1 173.242 Q 172.3 173.242 166.3 167.542 Q 160.3 161.842 160.3 153.142 Q 160.3 144.342 166.3 138.642 Q 172.3 132.942 182.1 132.942 Q 191.8 132.942 197.9 138.642 Q 203.8 144.342 203.8 153.142 Q 203.8 161.842 197.9 167.542 Q 191.8 173.242 182.1 173.242 Z M 169.1 153.142 Q 169.1 158.742 172.8 162.542 Q 176.5 166.242 182.1 166.242 Q 187.6 166.242 191.4 162.542 Q 195.2 158.742 195.2 153.142 Q 195.2 147.542 191.4 143.742 Q 187.5 139.942 182.1 139.942 Q 176.6 139.942 172.8 143.742 Q 169.1 147.542 169.1 153.142 Z"/><path d="M 223.2 173.242 Q 216.3 173.242 212.6 169.342 Q 208.9 165.542 208.9 158.942 L 208.9 133.742 L 217.4 133.742 L 217.4 157.042 Q 217.4 165.842 225.8 165.842 Q 230.7 165.842 233.8 163.042 Q 237.1 160.142 237.1 155.342 L 237.1 133.742 L 245.6 133.742 L 245.6 172.442 L 237.1 172.442 L 237.1 166.842 Q 231.5 173.242 223.2 173.242 L 223.2 173.242 Z"/><path fill-rule="evenodd" d="M 270.9 173.242 Q 262.2 173.042 256.7 167.442 Q 251.2 161.842 251 153.142 Q 251 144.442 256.7 138.742 Q 262.4 132.942 270.9 132.942 Q 279.9 132.942 285.2 139.442 L 285.2 119.942 L 293.7 119.942 L 293.7 172.442 L 285.2 172.442 L 285.2 166.742 Q 279.8 173.242 270.9 173.242 L 270.9 173.242 Z M 272.4 166.042 Q 278.4 166.042 281.9 162.242 Q 285.3 158.642 285.3 153.142 Q 285.3 147.642 281.9 143.942 Q 278.3 140.142 272.4 140.142 Q 266.5 140.142 263 143.942 Q 259.8 147.542 259.8 153.142 Q 259.8 158.642 263 162.242 Q 266.5 166.042 272.4 166.042 Z"/></g><g><g><g><path fill="#E83721" d="M 229.6 56.242 C 227.9 70.842 218.6 84.842 205.3 92.442 C 194.7 98.542 181.2 100.742 168.7 97.642 C 161.3 95.842 154.8 92.542 148 87.342 C 140.6 81.642 135.4 74.342 133.3 71.142 C 129.7 65.542 127.8 60.142 127.1 58.342 C 129.8 55.742 134.9 50.342 137.4 47.042 C 138.6 50.342 139.9 54.242 141.8 57.742 C 149.5 72.442 162.4 85.642 180.7 85.642 C 197.6 85.642 214.6 73.042 216.4 53.042 C 216.5 46.642 215.3 43.642 213.7 41.342 C 219.3 44.442 226.4 50.842 229.6 56.242 L 229.6 56.242 Z"/></g><path fill="#E83721" d="M77.1 60.842Q77.1 63.242 77.6 65.642C75.9 67.142 65.1 68.042 64 66.742Q63.6 63.842 63.6 60.842C63.6 39.642 80.7 22.542 101.9 22.542 110 22.542 117.6 25.142 123.8 29.442 120.9 32.942 118.1 36.442 115 39.842 111.2 37.442 106.7 36.042 101.9 36.042 88.2 36.042 77.1 47.142 77.1 60.842L77.1 60.842zM101.9 99.042C87.7 99.042 75.3 91.342 68.7 79.942 69.2 79.242 81.3 77.942 84.1 78.142 88.6 82.742 94.9 85.542 101.9 85.542Q117.1 86.742 131.3 75.442 136.7 83.142 140.8 85.942 127.3 99.042 101.9 99.042L101.9 99.042z"/></g><path fill="#E83721" d="M 228.6 37.242 C 224.1 33.442 209.8 28.242 209.1 27.442 C 201.5 17.242 185.8 10.142 169.6 15.242 C 158 18.942 145.3 30.642 135.6 42.842 C 129.6 50.442 118 62.242 110.4 66.942 C 101.6 72.242 88 79.642 68.7 79.942 C 66.2 75.542 64.7 70.942 64 66.742 C 71.6 67.142 81.7 65.242 88.9 62.542 C 95.9 59.842 104.7 55.942 116.5 44.242 C 126.3 34.442 132.4 23.142 147.8 11.842 C 165.2 -0.958 182.8 -3.258 200.9 4.342 C 219.1 12.042 226.9 30.242 228.6 37.242 L 228.6 37.242 Z"/><path fill="#E83721" d="M 229.6 56.842 C 225.7 50.742 220.8 46.842 216.2 44.242 C 212.1 42.042 200 36.742 185.4 42.442 C 177.7 45.542 172.6 50.842 167.5 57.442 C 163.6 62.642 158.4 70.042 157.4 71.442 C 153.9 68.142 150.6 64.342 147.9 60.242 C 155.1 51.642 158.2 46.442 164.7 40.042 C 173.6 31.242 186.3 26.342 199 26.342 C 211.7 26.342 222.3 31.442 228.2 35.742 C 230 41.942 230.7 49.742 229.6 56.842 L 229.6 56.842 Z"/></g></g></g></svg>

<svg xmlns="http://www.w3.org/2000/svg" role="img" viewBox="-5.87 -5.87 305.24 184.74"><title>JD.com, Inc. logo</title><style>svg {isolation:isolate}</style><defs><clipPath id="_clipPath_llmlVcLbyWwYXr6Zo8gnckNhMOgAZEV6"><path d="M0 0h293.7v173.242H0z"/></clipPath></defs><g clip-path="url(#_clipPath_llmlVcLbyWwYXr6Zo8gnckNhMOgAZEV6)"><path d="M0 173.242v-7.7h3.1q8.6 0 8.6-9v-33.1h9.2v33q0 8.1-4.9 12.6-4.8 4.2-13.1 4.2H0z"/><path fill-rule="evenodd" d="M30.1 172.442v-49h21.1q12.5 0 19.5 7 6.7 6.6 6.7 17.5 0 10.8-6.7 17.4-7.1 7.1-19.5 7.1H30.1zm9.2-7.9h11.9q8 0 12.4-4.5 4.3-4.4 4.3-12.1 0-7.8-4.3-12.2-4.4-4.5-12.4-4.5H39.3v33.3z"/><path d="M135.9 160.442l5.6 5.7q-7.4 7.1-17.9 7.1-11.9 0-19.3-7-7.3-7.1-7.3-18.3 0-11.2 7.2-18.2 7.4-7.2 19.1-7.2 10.8 0 18.1 7.2l-5.5 5.6q-5-5-12.4-5-7.8 0-12.6 5-4.9 4.9-4.9 12.6 0 7.7 5 12.6 5 5 12.8 5 7.1 0 12.1-5.1zm10.4 12v-52.5h8.6v52.5h-8.6z"/><path fill-rule="evenodd" d="M182.1 173.242q-9.8 0-15.8-5.7t-6-14.4q0-8.8 6-14.5 6-5.7 15.8-5.7 9.7 0 15.8 5.7 5.9 5.7 5.9 14.5 0 8.7-5.9 14.4-6.1 5.7-15.8 5.7zm-13-20.1q0 5.6 3.7 9.4 3.7 3.7 9.3 3.7 5.5 0 9.3-3.7 3.8-3.8 3.8-9.4 0-5.6-3.8-9.4-3.9-3.8-9.3-3.8-5.5 0-9.3 3.8-3.7 3.8-3.7 9.4z"/><path d="M223.2 173.242q-6.9 0-10.6-3.9-3.7-3.8-3.7-10.4v-25.2h8.5v23.3q0 8.8 8.4 8.8 4.9 0 8-2.8 3.3-2.9 3.3-7.7v-21.6h8.5v38.7h-8.5v-5.6q-5.6 6.4-13.9 6.4z"/><path fill-rule="evenodd" d="M270.9 173.242q-8.7-.2-14.2-5.8t-5.7-14.3q0-8.7 5.7-14.4 5.7-5.8 14.2-5.8 9 0 14.3 6.5v-19.5h8.5v52.5h-8.5v-5.7q-5.4 6.5-14.3 6.5zm1.5-7.2q6 0 9.5-3.8 3.4-3.6 3.4-9.1t-3.4-9.2q-3.6-3.8-9.5-3.8t-9.4 3.8q-3.2 3.6-3.2 9.2 0 5.5 3.2 9.1 3.5 3.8 9.4 3.8z"/><g><path fill="#E83721" d="M229.6 56.242c-1.7 14.6-11 28.6-24.3 36.2-10.6 6.1-24.1 8.3-36.6 5.2-7.4-1.8-13.9-5.1-20.7-10.3-7.4-5.7-12.6-13-14.7-16.2-3.6-5.6-5.5-11-6.2-12.8 2.7-2.6 7.8-8 10.3-11.3 1.2 3.3 2.5 7.2 4.4 10.7 7.7 14.7 20.6 27.9 38.9 27.9 16.9 0 33.9-12.6 35.7-32.6.1-6.4-1.1-9.4-2.7-11.7 5.6 3.1 12.7 9.5 15.9 14.9z"/><path fill="#E83721" d="M77.1 60.842q0 2.4.5 4.8c-1.7 1.5-12.5 2.4-13.6 1.1q-.4-2.9-.4-5.9c0-21.2 17.1-38.3 38.3-38.3 8.1 0 15.7 2.6 21.9 6.9-2.9 3.5-5.7 7-8.8 10.4-3.8-2.4-8.3-3.8-13.1-3.8-13.7 0-24.8 11.1-24.8 24.8zm24.8 38.2c-14.2 0-26.6-7.7-33.2-19.1.5-.7 12.6-2 15.4-1.8 4.5 4.6 10.8 7.4 17.8 7.4q15.2 1.2 29.4-10.1 5.4 7.7 9.5 10.5-13.5 13.1-38.9 13.1z"/><path fill="#E83721" d="M228.6 37.242c-4.5-3.8-18.8-9-19.5-9.8-7.6-10.2-23.3-17.3-39.5-12.2-11.6 3.7-24.3 15.4-34 27.6-6 7.6-17.6 19.4-25.2 24.1-8.8 5.3-22.4 12.7-41.7 13-2.5-4.4-4-9-4.7-13.2 7.6.4 17.7-1.5 24.9-4.2 7-2.7 15.8-6.6 27.6-18.3 9.8-9.8 15.9-21.1 31.3-32.4 17.4-12.8 35-15.1 53.1-7.5 18.2 7.7 26 25.9 27.7 32.9z"/><path fill="#E83721" d="M229.6 56.842c-3.9-6.1-8.8-10-13.4-12.6-4.1-2.2-16.2-7.5-30.8-1.8-7.7 3.1-12.8 8.4-17.9 15-3.9 5.2-9.1 12.6-10.1 14-3.5-3.3-6.8-7.1-9.5-11.2 7.2-8.6 10.3-13.8 16.8-20.2 8.9-8.8 21.6-13.7 34.3-13.7 12.7 0 23.3 5.1 29.2 9.4 1.8 6.2 2.5 14 1.4 21.1z"/></g></g></svg>
